!!!COM: Beethoven
!!!OTL: Zehn Variationen uber "la stessa, la stessissima" aus "Falstaff" von A. Salieri
!!!Variation: Variation 10 coda a
**function	**harm	**kern	**kern
*	*	*staff2	*staff1
*	*	*clefF4	*clefG2
*tb16	*	*k[b-e-]	*k[b-e-]
*Bb:	*Bb:	*Bb:	*Bb:
*M3/8	*M3/8	*M3/8	*M3/8
=	=	=270	=270
*	*	*^	*
4.T	4.I	8F'	8BB-	16b-LL
.	.	.	.	16f
.	.	[4B-	8r	16d
.	.	.	.	16dd
.	.	.	8r	16b-
.	.	.	.	16fJJ
=	=	=271	=271	=271
4.T	4.I	8B-]	8BB-	16ffLL
.	.	.	.	16dd
.	.	[4d	8r	16b-
.	.	.	.	16bb-
.	.	.	8r	16ff
.	.	.	.	16ddJJ
=	=	=272	=272	=272
4.T	4.V7	8d]	8F	16ee-LL
.	.	.	.	16cc
.	.	[4c	8r	16a
.	.	.	.	16aa
.	.	.	8r	16ee-
.	.	.	.	16ccJJ
=	=	=273	=273	=273
4.T	4.V7	8cL]	4.r	16cccLL
.	.	.	.	16aa
.	.	8F'	.	16ee-
.	.	.	.	16eee-
.	.	8F'J	.	16ccc
.	.	.	.	16aaJJ
=	=	=274	=274	=274
4.T	4.V7	8F'	8FF	16eee-LL
.	.	.	.	16ccc
.	.	[4c	8r	16aa
.	.	.	.	16eee-
.	.	.	8r	16ccc
.	.	.	.	16aaJJ
=	=	=275	=275	=275
4.T	4.V7	8c]	8F	16ee-LL
.	.	.	.	16cc
.	.	[4f	8r	16a
.	.	.	.	16ee-
.	.	.	8r	16cc
.	.	.	.	16aJJ
=	=	=276	=276	=276
4.T	4.I	8f]	8B-	16ccLL
.	.	.	.	16b-
.	.	[4d	8r	16a
.	.	.	.	16b-
.	.	.	8r	16cc
.	.	.	.	16ddJJ
=	=	=277	=277	=277
4.T	4.I	8dL]	4.r	16ee-LL
.	.	.	.	16ee
.	.	8B-'	.	16ff
.	.	.	.	16gg
.	.	8B-'J	.	16aa
.	.	.	.	16bb-JJ
=	=	=278	=278	=278
4.T	4.IV	8B-	8E-	16ggLL
.	.	.	.	16ee-
.	.	[4e-	8r	16b-
.	.	.	.	16gg
.	.	.	8r	16ee-
.	.	.	.	16b-JJ
=	=	=279	=279	=279
4.T	4.IV	8e-]	8E-	16bb-LL
.	.	.	.	16gg
.	.	[4g	8r	16b-
.	.	.	.	16bb-
.	.	.	8r	16ee-
.	.	.	.	16b-JJ
=	=	=280	=280	=280
4.T	4.I	8g]	8B-	16bb-LL
.	.	.	.	16b-
.	.	[4f	8r	16dd
.	.	.	.	16ff
.	.	.	8r	16bb-
.	.	.	.	16ddJJ
=	=	=281	=281	=281
4.T	4.I	8fL]	4.r	16ffLL
.	.	.	.	16bb-
.	.	8d'	.	16ddd
.	.	.	.	16ff
.	.	8B-'J	.	16bb-
.	.	.	.	16dddJJ
*	*	*v	*v	*
=	=	=282	=282
8D	8V	8F 8c	16fff'LL
.	.	.	(16ee
4D	4i	4B- 4d-	16ff)
.	.	.	(16eee
.	.	.	16fff)
.	.	.	(16eeJJ
=	=	=283	=283
8D	8V	8F 8c	16ffLL)
.	.	.	(16eee
4D	4I	4B- 4d	16fff)
.	.	.	(16ee
.	.	.	16ff)
.	.	.	(16eeeJJ
=	=	=284	=284
4.D	4.V	4F 4c	16fffLL)
.	.	.	16ccc
.	.	.	16aa
.	.	.	16ff
.	.	8r	16cc
.	.	.	16aJJ
=	=	=285	=285
4.D	4.V7	4.r	16fLL
.	.	.	16e
.	.	.	16e-
.	.	.	16d
.	.	.	16c
.	.	.	16fJJ
=	=	=	=
*-	*-	*-	*-
